X:394
T: Wuge fangyang
N: C1429
O: China, Ningxia, Yinchuan
S: I, 192]
R: Xiaodiao, Biaoda aiqing]
M: 3/8
L: 1/16
K: F
F2D2D2 | d6 | d6 | d2d2f2 | d6
d4dc | A6 | c4A2 | G4F2 | D6
G4GA | d4dc | A4c2 | A4G2
G4FG | A6 | c4A2 | G4F2 | D6

